X: 75
T: La Soirre du Vauxhall
%R: jig
B: Stewart "A Select Collection of Airs, Jigs, Marches and Reels", ca.1784, p.37 #75
F: http://imslp.org/wiki/A_Select_Collection_of_Airs,_Jigs,_Marches_and_Reels_%28Various%29
Z: 2017 John Chambers <jc:trillian.mit.edu>
M: 6/8
L: 1/8
K: G
g |\
dcB cBA | G2G G2D | GFG ABc | TB2A G2g |\
dcB cBA | G2G G2g | fed ed^c | d2d d2 :|
|: d |\
A2A ABc | B2B B2d | edc BAG | FGA D2d |\
A2A ABc | B2B Bgf | edc BcA | G2G G2 :|

%%sep 1 1 500
%%sep 1 1 500

